X:1
T:the Southwest Wind
O:Ireland
S:Micho Russell
F:http://trad.katesplacedoolin.com/ 2015-6-5
R:Jig
M:6/8
L:1/8
K:Dmix
[|\
A2A A2d | cAG E2G | DGG EGG | DGG EFG |\
ABA A2d | cAG ~e3 | ded cGE | DED dzB |]
[|\
A2A A2d | cAG e2z | DGG EGG | DGG EFG |\
ABA A2d | cAG e2e | ded cGe | ded d2e |]
|:\
fdd Add | fdd d2e | fad e2d | =cAG A2e |\
~f2f ege | ~d3 cAG | A2A cGE |1 DED d2e :|2 DED d2B |]
